X: '1'
T:Pickles
C:Gabrielle Létourneau
N:© Gabrielle Létourneau
Z:gabie.letourneau@hotmail.ca
R:reel
M:4/4
L:1/8
K:Bm
B2Bc dcBA | FAEA DAFA | B2Bc dcBA | cAeA fedc |
B2Bc dcBA | FAEA DAFA | G3A BABd |1 cBAF B2 c2 :|2 [R:reel
M:2/4]cBAF |:
[R:reel
M:6/4] B3B- BAFA FEDA | B3B- BAFA cAdc | B3B- BAFA FEDF |1
G3A BABd cBAF :|2 [R:reel
M:4/4] G3A BABd | cBAF B2c2 |]
